assets/icons/24px/outline/car-24px.svg

<svg width="24" height="24" viewBox="0 0 24 24" fill="none" xmlns="http://www.w3.org/2000/svg">
<path d="M5 21V18M18.5 21V18M4.5 11V11C3.67157 11 3 11.6703 3 12.4987C3 12.8915 3 13.3839 3 14C3 14.8271 3.1004 15.5316 3.23757 16.1082C3.40101 16.7952 3.48272 17.1387 4.02783 17.5694C4.57295 18 5.06521 18 6.04974 18H17.3377C18.6735 18 19.3414 18 19.8894 17.5613C20.4374 17.1225 20.5611 16.5705 20.8087 15.4664C20.9216 14.9629 21 14.4509 21 14C21 13.4605 21 12.9457 21 12.4996C21 11.6712 20.3284 11 19.5 11V11M4.5 11L5.74254 6.02986C6.10632 4.57474 6.28821 3.84718 6.83073 3.42359C7.37325 3 8.1232 3 9.62311 3H14.3769C15.8768 3 16.6267 3 17.1693 3.42359C17.7118 3.84718 17.8937 4.57474 18.2575 6.02986L19.5 11M4.5 11H19.5" stroke="white" stroke-width="2" stroke-linecap="round" stroke-linejoin="round"/>
<path d="M8 14C8 14.5523 7.55228 15 7 15C6.44772 15 6 14.5523 6 14C6 13.4477 6.44772 13 7 13C7.55228 13 8 13.4477 8 14Z" fill="white"/>
<path d="M18 14C18 14.5523 17.5523 15 17 15C16.4477 15 16 14.5523 16 14C16 13.4477 16.4477 13 17 13C17.5523 13 18 13.4477 18 14Z" fill="white"/>
</svg>

<svg width="24" height="24" fill="none" xmlns="http://www.w3.org/2000/svg"><path d="M5 21v-3m13.5 3v-3m-14-7c-.828 0-1.5.67-1.5 1.499V14c0 .827.1 1.532.238 2.108.163.687.245 1.03.79 1.461C4.573 18 5.065 18 6.05 18h11.288c1.335 0 2.003 0 2.551-.439s.672-.99.92-2.095c.113-.503.191-1.015.191-1.466v-1.5a1.5 1.5 0 0 0-1.5-1.5m-15 0l1.243-4.97c.363-1.455.545-2.183 1.088-2.606C7.373 3 8.123 3 9.623 3h4.754c1.5 0 2.25 0 2.792.424.543.423.725 1.15 1.088 2.606L19.5 11m-15 0h15" stroke="#fff" stroke-width="2" stroke-linecap="round" stroke-linejoin="round"/><path d="M8 14a1 1 0 1 1-2 0 1 1 0 0 1 2 0zm10 0a1 1 0 1 1-2 0 1 1 0 0 1 2 0z" fill="#fff"/></svg>
